X:1
T:Callest Thou?
T:George Crawford Hugg
T:Callest Thou?
T:Public Domain
T:Public Domain
C:George Crawford Hugg
Z:Public Domain
%%score ( 1 2 ) ( 3 4 )
L:1/8
M:6/8
K:Bb
V:1 treble 
V:2 treble 
V:3 bass 
V:4 bass 
V:1
 [DF][^CG][DF] [DB]2 [DF] | [FA]3 [EG]3 | [EF][EG][EF] [A,C]2 [A,^C] | %3
w: 1.~Call- est Thou thus, oh|Mas- ter?|Call- est Thou thus to|
w: 2.~Com- est Thou thus, oh|Mas- ter?|Com- est Thou thus to|
w: 3.~“Child,” said the gra- cious|Mas- ter,|With voice di- vine- ly|
 [B,D]6 [DF][^CG][DF] [DB]2 [DF] | [FA]3 [EG]3 | [=EG][^D^F][EG] [Ec]2 [EG] | (B3 A3) | %7
w: me? Wear- y and heav- y|la- den,|Long- ing to come to|Thee, *|
w: me? Un- trimmed, my lamp, and|dy- ing,|And house not meet for|Thee. *|
w: sweet, “I on- ly ask a|wel- come,|Rest for My wear- y|feet!” *|
 [DF][Fd][Ec] [DB]2 [B,D] | [EF]3 [EF]3 | [DF][Fd][DB] [DF]2 [F_A] | [EG]6 | %11
w: in the lone- ly dark-|ness Thy|dear voice sounds so sweet,|I|
w: art so great and ho-|ly, I|am by sin un- done,|I|
w: o’er my low- ly thresh-|old, Dark,|and de- filed by sin,|Tho’|
 [Ge][^Fd][Gc] [=FB]2 [FA] | [Ec][DB][B,D] [EA]2 [EG] | [DF][^C=E][DF] [_E=c]2 [DB] | [DB]6 |] %15
w: am not worth- y, Mas-|ter, oh no, Not worth-|y to kiss Thy feet.||
w: am not worth- y, Mas-|ter, oh no, Not worth-|y that Thou shouldst come.||
w: all un- worth- y, Mas-|ter, oh come, I pray|Thee, come, en- ter in.||
V:2
 x6 | x6 | x6 | x12 | x6 | x6 | F6 | x6 | x6 | x6 | x6 | x6 | x6 | x6 | x6 |] %15
w: ||||||Out|||||||||
w: ||||||Thou|||||||||
w: ||||||Come|||||||||
V:3
 [B,,F,][B,,=E,][B,,F,] [B,,F,]2 [B,,B,] | [D,B,]3 [E,B,]3 | [F,A,][F,A,][F,A,] F,2 F, | %3
 [B,,F,]6 [B,,F,][B,,=E,][B,,F,] [B,,F,]2 [B,,B,] | [D,B,]3 [E,B,]3 | %5
 [C,C][C,C][C,C] [C,C]2 [C,C] | (D3 C3) | [B,,B,][B,,B,][B,,B,] [B,,B,]2 [B,,F,] | %8
 [C,F,]3 [F,A,]3 | [B,,B,][B,,B,][B,,B,] [B,,B,]2 [D,B,] | [E,B,]6 | %11
 [C,C][D,=B,][E,C] [F,D]2 [F,C] | [B,,B,][B,,B,][B,,F,] [C,F,]2 [A,,C,F,] | %13
 [B,,F,][B,,G,][B,,F,] F,2 [B,,F,] | [B,,F,]6 |] %15
V:4
 x6 | x6 | x3 F,2 F, | x12 | x6 | x6 | F,6 | x6 | x6 | x6 | x6 | x6 | x6 | x3 F,2 x | x6 |] %15

